packages/assets/static/images/icons/syringe.svg

<svg width="24" height="24" viewBox="0 0 24 24" xmlns="http://www.w3.org/2000/svg">
<path d="M22.2812 6.2193L17.7812 1.7193C17.7115 1.64962 17.6288 1.59435 17.5377 1.55663C17.4467 1.51892 17.3491 1.49951 17.2505 1.49951C17.152 1.49951 17.0544 1.51892 16.9634 1.55663C16.8723 1.59435 16.7896 1.64962 16.7199 1.7193C16.6502 1.78899 16.595 1.87171 16.5572 1.96276C16.5195 2.0538 16.5001 2.15138 16.5001 2.24993C16.5001 2.34847 16.5195 2.44606 16.5572 2.5371C16.595 2.62815 16.6502 2.71087 16.7199 2.78055L18.4402 4.49993L15.7505 7.18962L12.5312 3.9693C12.3904 3.82857 12.1996 3.74951 12.0005 3.74951C11.8015 3.74951 11.6106 3.82857 11.4699 3.9693C11.3292 4.11003 11.2501 4.30091 11.2501 4.49993C11.2501 4.69895 11.3292 4.88982 11.4699 5.03055L12.0652 5.62493L4.19023 13.4999C4.05033 13.6387 3.93942 13.8039 3.86394 13.9859C3.78846 14.168 3.74991 14.3632 3.75054 14.5602V19.1896L1.71991 21.2193C1.65023 21.289 1.59496 21.3717 1.55724 21.4628C1.51953 21.5538 1.50012 21.6514 1.50012 21.7499C1.50012 21.8485 1.51953 21.9461 1.55724 22.0371C1.59496 22.1281 1.65023 22.2109 1.71991 22.2806C1.86064 22.4213 2.05152 22.5003 2.25054 22.5003C2.34909 22.5003 2.44667 22.4809 2.53771 22.4432C2.62876 22.4055 2.71148 22.3502 2.78116 22.2806L4.81085 20.2499H9.44023C9.63728 20.2506 9.8325 20.212 10.0145 20.1365C10.1965 20.061 10.3618 19.9501 10.5005 19.8102L18.3755 11.9352L18.9699 12.5306C19.0396 12.6002 19.1223 12.6555 19.2134 12.6932C19.3044 12.7309 19.402 12.7503 19.5005 12.7503C19.5991 12.7503 19.6967 12.7309 19.7877 12.6932C19.8788 12.6555 19.9615 12.6002 20.0312 12.5306C20.1008 12.4609 20.1561 12.3781 20.1938 12.2871C20.2315 12.1961 20.251 12.0985 20.251 11.9999C20.251 11.9014 20.2315 11.8038 20.1938 11.7128C20.1561 11.6217 20.1008 11.539 20.0312 11.4693L16.8109 8.24993L19.5005 5.56024L21.2199 7.28055C21.3606 7.42128 21.5515 7.50035 21.7505 7.50035C21.9496 7.50035 22.1404 7.42128 22.2812 7.28055C22.4219 7.13982 22.501 6.94895 22.501 6.74993C22.501 6.55091 22.4219 6.36003 22.2812 6.2193ZM9.44023 18.7499H5.25054V14.5602L6.93804 12.8727L8.84491 14.7806C8.9146 14.8502 8.99732 14.9055 9.08837 14.9432C9.17941 14.9809 9.27699 15.0003 9.37554 15.0003C9.47409 15.0003 9.57167 14.9809 9.66271 14.9432C9.75376 14.9055 9.83648 14.8502 9.90616 14.7806C9.97585 14.7109 10.0311 14.6281 10.0688 14.5371C10.1065 14.4461 10.126 14.3485 10.126 14.2499C10.126 14.1514 10.1065 14.0538 10.0688 13.9628C10.0311 13.8717 9.97585 13.789 9.90616 13.7193L7.99835 11.8124L9.18804 10.6227L11.0949 12.5306C11.2356 12.6713 11.4265 12.7503 11.6255 12.7503C11.8246 12.7503 12.0154 12.6713 12.1562 12.5306C12.2969 12.3898 12.376 12.199 12.376 11.9999C12.376 11.8009 12.2969 11.61 12.1562 11.4693L10.2484 9.56243L13.1255 6.68524L17.3152 10.8749L9.44023 18.7499Z"/>
</svg>

<svg viewBox="0 0 24 24" xmlns="http://www.w3.org/2000/svg" aria-hidden="true" fill="currentColor"><path d="m22.281 6.22-4.5-4.5a.75.75 0 0 0-1.061 1.06l1.72 1.72-2.69 2.69-3.219-3.22a.75.75 0 0 0-1.061 1.06l.595.595L4.19 13.5a1.5 1.5 0 0 0-.44 1.06v4.63l-2.03 2.03a.75.75 0 0 0 1.061 1.06l2.03-2.03h4.63a1.5 1.5 0 0 0 1.06-.44l7.874-7.875.595.596a.751.751 0 0 0 1.061-1.062l-3.22-3.22L19.5 5.56l1.719 1.72a.75.75 0 1 0 1.061-1.06M9.441 18.75H5.25v-4.19l1.687-1.687 1.907 1.908a.751.751 0 0 0 1.061-1.062l-1.908-1.907 1.19-1.19 1.907 1.909a.75.75 0 0 0 1.061-1.062l-1.908-1.907 2.878-2.877 4.19 4.19z"/></svg>
